symbols/web/biotech/materialsymbolsoutlined/biotech_gradN25_20px.svg

<svg xmlns="http://www.w3.org/2000/svg" height="20" width="20"><path d="M4.333 17.333v-1.645h4.125v-1.626h-.041q-1.709 0-2.896-1.187-1.188-1.187-1.188-2.896 0-1.229.677-2.25.678-1.021 1.844-1.479.146-.708.719-1.146.573-.437 1.281-.437l-.458-1.25.792-.292-.313-.75 1.542-.563.291.75.709-.229 2.229 6.105-.75.291.25.771-1.5.521-.292-.729-.75.291-.479-1.333q-.313.271-.698.396-.385.125-.781.083-.458-.041-.844-.239-.385-.198-.656-.573-.542.333-.854.885-.313.552-.313 1.177 0 1.021.709 1.729.708.709 1.729.709h6.395v1.645h-3.833v1.626h4.709v1.645Zm7.021-9.375.792-.312-1.438-3.792-.77.313Zm-2.562-.416q.333 0 .573-.24.239-.24.239-.573 0-.333-.239-.573-.24-.239-.573-.239-.334 0-.573.239-.24.24-.24.573 0 .333.24.573.239.24.573.24Zm2.562.416ZM8.792 6.729Zm0 0Z"/></svg>

<svg xmlns="http://www.w3.org/2000/svg" height="20" width="20"><path d="M4.333 17.333V15.688H8.458V14.062H8.417Q6.708 14.062 5.521 12.875Q4.333 11.688 4.333 9.979Q4.333 8.75 5.01 7.729Q5.688 6.708 6.854 6.25Q7 5.542 7.573 5.104Q8.146 4.667 8.854 4.667L8.396 3.417L9.188 3.125L8.875 2.375L10.417 1.812L10.708 2.562L11.417 2.333L13.646 8.438L12.896 8.729L13.146 9.5L11.646 10.021L11.354 9.292L10.604 9.583L10.125 8.25Q9.812 8.521 9.427 8.646Q9.042 8.771 8.646 8.729Q8.188 8.688 7.802 8.49Q7.417 8.292 7.146 7.917Q6.604 8.25 6.292 8.802Q5.979 9.354 5.979 9.979Q5.979 11 6.688 11.708Q7.396 12.417 8.417 12.417H14.812V14.062H10.979V15.688H15.688V17.333ZM11.354 7.958 12.146 7.646 10.708 3.854 9.938 4.167ZM8.792 7.542Q9.125 7.542 9.365 7.302Q9.604 7.062 9.604 6.729Q9.604 6.396 9.365 6.156Q9.125 5.917 8.792 5.917Q8.458 5.917 8.219 6.156Q7.979 6.396 7.979 6.729Q7.979 7.062 8.219 7.302Q8.458 7.542 8.792 7.542ZM11.354 7.958ZM8.792 6.729Q8.792 6.729 8.792 6.729Q8.792 6.729 8.792 6.729Q8.792 6.729 8.792 6.729Q8.792 6.729 8.792 6.729Q8.792 6.729 8.792 6.729Q8.792 6.729 8.792 6.729Q8.792 6.729 8.792 6.729Q8.792 6.729 8.792 6.729ZM8.792 6.729Q8.792 6.729 8.792 6.729Q8.792 6.729 8.792 6.729Q8.792 6.729 8.792 6.729Q8.792 6.729 8.792 6.729Q8.792 6.729 8.792 6.729Q8.792 6.729 8.792 6.729Q8.792 6.729 8.792 6.729Q8.792 6.729 8.792 6.729Z"/></svg>
